svg/food/soup_pot_2_fill.svg

<svg xmlns="http://www.w3.org/2000/svg" width="24" height="24" viewBox="0 0 24 24"><g fill="none" fill-rule="evenodd"><path d="M24,0 L24,24 L0,24 L0,0 L24,0 Z M12.5935,23.2578 L12.5819,23.2595 L12.5109,23.295 L12.4919,23.2987 L12.4767,23.295 L12.4057,23.2595 C12.3958,23.2564 12.387,23.259 12.3821,23.2649 L12.378,23.2758 L12.3609,23.7031 L12.3659,23.7235 L12.3769,23.7357 L12.4805,23.8097 L12.4953,23.8136 L12.5071,23.8097 L12.6107,23.7357 L12.6233,23.7197 L12.6267,23.7031 L12.6096,23.2758 C12.6076,23.2657 12.601,23.2593 12.5935,23.2578 Z M12.8584,23.1453 L12.8445,23.1473 L12.6598,23.2397 L12.6499,23.2499 L12.6472,23.2611 L12.6651,23.6906 L12.6699,23.7034 L12.6784,23.7105 L12.8793,23.8032 C12.8914,23.8069 12.9022,23.803 12.9078,23.7952 L12.9118,23.7812 L12.8777,23.1665 C12.8753,23.1546 12.8674,23.147 12.8584,23.1453 Z M12.143,23.1473 C12.1332,23.1424 12.1222,23.1453 12.1156,23.1526 L12.1099,23.1665 L12.0758,23.7812 C12.0751,23.7927 12.0828,23.8019 12.0926,23.8046 L12.1083,23.8032 L12.3092,23.7105 L12.3186,23.7024 L12.3225,23.6906 L12.3404,23.2611 L12.3372,23.2485 L12.3278,23.2397 L12.143,23.1473 Z"/><path fill="#09244B" d="M10,3 C9.44772,3 9,3.44772 9,4 C9,4.55228 9.44772,5 10,5 L11,5 L11,6 L10,6 C9.76152,6.00022 9.52373,6.02476 9.28743,6.05493 C8.87178,6.10799 8.29648,6.21296 7.63637,6.42142 C6.69901,6.71742 5.57907,7.22622 4.50647,8.0987 C4.47693,8.06488 4.44617,8.03195 4.41421,8 L3.70711,7.29289 C3.31658,6.90237 2.68342,6.90237 2.29289,7.29289 C1.90237,7.68342 1.90237,8.31658 2.29289,8.70711 L3,9.41421 L3,16 C3,18.7614 5.23858,21 8,21 L16,21 C18.7614,21 21,18.7614 21,16 L21,9.41421 L21.7071,8.70711 C22.0976,8.31658 22.0976,7.68342 21.7071,7.29289 C21.3166,6.90237 20.6834,6.90237 20.2929,7.29289 L19.5858,8 C19.5538,8.03195 19.5231,8.06488 19.4935,8.0987 C18.4209,7.22622 17.301,6.71742 16.3636,6.42142 C15.7035,6.21296 15.1282,6.10799 14.7126,6.05493 C14.4754,6.02465 14.2387,6.00831 14,6 L13,6 L13,5 L14,5 C14.5523,5 15,4.55228 15,4 C15,3.44772 14.5523,3 14,3 L10,3 Z"/></g></svg>

<svg xmlns="http://www.w3.org/2000/svg" width="24" height="24"><g fill="none" fill-rule="evenodd"><path d="M24 0v24H0V0zM12.594 23.258l-.012.002-.071.035-.02.004-.014-.004-.071-.036c-.01-.003-.019 0-.024.006l-.004.01-.017.428.005.02.01.013.104.074.015.004.012-.004.104-.074.012-.016.004-.017-.017-.427c-.002-.01-.009-.017-.016-.018m.264-.113-.014.002-.184.093-.01.01-.003.011.018.43.005.012.008.008.201.092c.012.004.023 0 .029-.008l.004-.014-.034-.614c-.003-.012-.01-.02-.02-.022m-.715.002a.023.023 0 0 0-.027.006l-.006.014-.034.614c0 .012.007.02.017.024l.015-.002.201-.093.01-.008.003-.011.018-.43-.003-.012-.01-.01z"/><path fill="#09244B" d="M10 3a1 1 0 0 0 0 2h1v1h-1c-.238 0-.476.025-.713.055-.415.053-.99.158-1.65.366A9.481 9.481 0 0 0 4.506 8.1 1.999 1.999 0 0 0 4.413 8l-.707-.707a1 1 0 0 0-1.414 1.414L3 9.414V16a5 5 0 0 0 5 5h8a5 5 0 0 0 5-5V9.414l.707-.707a1 1 0 0 0-1.414-1.414L19.586 8a2.01 2.01 0 0 0-.092.099 9.48 9.48 0 0 0-3.13-1.678 9.535 9.535 0 0 0-1.651-.366A7.737 7.737 0 0 0 14 6h-1V5h1a1 1 0 1 0 0-2z"/></g></svg>
